X:38
T:Halling efter Albert Fossum
T:(SvL Bohuslän 38)
R:Halling
O:Bohuslän
S:efter Albert Fossum
N:Från Granquist.
B:Svenska Låtar Bohuslän
M: 2/4
L: 1/16
K: D
A |:d(ef)(d f>)(ec)e | d(ef)(d f>)(ec)e | defg {/g}a2ag | e2ec [A4A,4]:| 
|:abag a2fd | f2ec [A2A,2][A2A,2] | abag a2f(d | f)ece d4:|

